icons/discriminating_concentration_bioassays_fill.svg

<svg width="48" height="48" viewBox="0 0 48 48" fill="none" xmlns="http://www.w3.org/2000/svg">
<path fill-rule="evenodd" clip-rule="evenodd" d="M28 6C26.8954 6 26 6.89543 26 8V12H27.5333V14.1949C27.5333 15.0557 27.1636 15.875 26.5182 16.4444L24.6919 18.0559C23.6162 19.005 23 20.3705 23 21.8051V37C23 39.7614 25.2386 42 28 42H37C39.7614 42 42 39.7614 42 37V21.8051C42 20.3705 41.3838 19.005 40.3081 18.0559L38.4818 16.4444C37.8364 15.875 37.4667 15.0557 37.4667 14.1949V12H39V8C39 6.89543 38.1046 6 37 6H28ZM35.4667 12H29.5333V14.1949C29.5333 15.6295 28.9171 16.995 27.8414 17.9441L26.0151 19.5556C25.3697 20.125 25 20.9443 25 21.8051V37C25 38.6569 26.3431 40 28 40H37C38.6569 40 40 38.6569 40 37V21.8051C40 20.9443 39.6303 20.125 38.9849 19.5556L37.1586 17.9441C36.0829 16.995 35.4667 15.6295 35.4667 14.1949V12ZM33 21.5C33 21.2239 32.7761 21 32.5 21C32.2239 21 32 21.2239 32 21.5V24.2276C31.7195 24.492 31.4772 24.9726 31.3015 25.5944L30.5 24.7929V23.5C30.5 23.3674 30.4473 23.2402 30.3535 23.1464L28.8535 21.6464C28.6583 21.4512 28.3417 21.4512 28.1464 21.6464C27.9512 21.8417 27.9512 22.1583 28.1464 22.3536L29.5 23.7071V25C29.5 25.1326 29.5527 25.2598 29.6464 25.3536L31.0712 26.7784C31.0615 26.8597 31.0526 26.9422 31.0448 27.0258L26.0376 27.8571C25.8811 28.5714 26.1314 30 28.3841 30C29.9332 30 30.6834 29.0542 31.0009 28.1382C31.005 28.4647 31.0239 28.7812 31.0556 29.0833L28.7 30.85C28.5191 30.9856 28.4518 31.2258 28.5358 31.4357L28.8527 32.228L27.8077 32.6635C27.5528 32.7697 27.4323 33.0624 27.5385 33.3173C27.6447 33.5722 27.9374 33.6927 28.1923 33.5865L29.6923 32.9615C29.9446 32.8564 30.0658 32.5681 29.9642 32.3143L29.6066 31.4201L31.2449 30.1913C31.2877 30.3655 31.3355 30.5301 31.3878 30.6839L31.0159 32.1251C31.0053 32.1659 31 32.2079 31 32.25V32.9496L29.6096 34.6877C29.4371 34.9033 29.472 35.2179 29.6877 35.3904C29.9033 35.5629 30.2179 35.528 30.3904 35.3123L31.8904 33.4373C31.9614 33.3487 32 33.2385 32 33.125V32.3135L32.1152 31.8672C32.238 31.9538 32.367 32 32.5 32C32.6492 32 32.7933 31.9419 32.9293 31.8338L33 32.0725V33.125C33 33.2385 33.0386 33.3487 33.1096 33.4373L34.6096 35.3123C34.7821 35.528 35.0967 35.5629 35.3123 35.3904C35.528 35.2179 35.5629 34.9033 35.3904 34.6877L34 32.9496V32C34 31.9519 33.9931 31.9041 33.9794 31.858L33.6225 30.6534C33.6625 30.5332 33.6997 30.4066 33.7341 30.2742L35.3886 31.4323L35.0358 32.3143C34.9342 32.5681 35.0554 32.8564 35.3077 32.9615L36.8077 33.5865C37.0626 33.6927 37.3553 33.5722 37.4615 33.3173C37.5677 33.0624 37.4472 32.7697 37.1923 32.6635L36.1473 32.228L36.4642 31.4357C36.5505 31.2201 36.4769 30.9735 36.2867 30.8404L33.9322 29.1922C33.9556 28.9922 33.9733 28.7854 33.9847 28.5732C34.3752 29.3309 35.1129 30 36.4159 30C38.6686 30 38.9189 28.5714 38.7624 27.8571L33.9583 27.0595C33.9497 26.9644 33.9398 26.8707 33.9287 26.7784L35.3535 25.3536C35.4473 25.2598 35.5 25.1326 35.5 25V23.7071L36.8535 22.3536C37.0488 22.1583 37.0488 21.8417 36.8535 21.6464C36.6583 21.4512 36.3417 21.4512 36.1464 21.6464L34.6464 23.1464C34.5527 23.2402 34.5 23.3674 34.5 23.5V24.7929L33.6985 25.5944C33.5227 24.9726 33.2805 24.492 33 24.2276V21.5ZM28.3841 29C27.6338 29 27.3152 28.8112 27.1801 28.6811L29.8586 28.2364C29.8425 28.263 29.8257 28.2893 29.8083 28.3151C29.5596 28.683 29.1571 29 28.3841 29ZM37.6199 28.6811C37.4848 28.8112 37.1662 29 36.4159 29C35.6429 29 35.2404 28.683 34.9917 28.3151C34.9743 28.2893 34.9575 28.263 34.9414 28.2364L37.6199 28.6811ZM6 14.1429H6.74999V15.2447C6.74999 15.9052 7.01589 16.5379 7.48772 17.0001C7.57552 17.0861 7.62499 17.2038 7.62499 17.3267V30.6733C7.62499 30.7962 7.57552 30.9139 7.48772 30.9999C7.01589 31.4621 6.74999 32.0948 6.74999 32.7553V33.8571H6V39H20V33.8571H19.25V32.7553C19.25 32.0948 18.9841 31.4621 18.5123 30.9999C18.4245 30.9139 18.375 30.7962 18.375 30.6733V17.3267C18.375 17.2038 18.4245 17.0861 18.5123 17.0001C18.9841 16.5379 19.25 15.9052 19.25 15.2447V14.1429H20V9H6V14.1429ZM17.25 33.8571V32.7553C17.25 32.6324 17.2005 32.5147 17.1127 32.4287C16.6409 31.9665 16.375 31.3338 16.375 30.6733V17.3267C16.375 16.6663 16.6409 16.0336 17.1127 15.5714C17.2005 15.4854 17.25 15.3676 17.25 15.2447V14.1429H16V12.4286C16 11.8763 15.5523 11.4286 15 11.4286C14.4477 11.4286 14 11.8763 14 12.4286V14.1429H12V12.4286C12 11.8763 11.5523 11.4286 11 11.4286C10.4477 11.4286 9.99999 11.8763 9.99999 12.4286V14.1429H8.74999V15.2447C8.74999 15.3676 8.79947 15.4854 8.88727 15.5714C9.3591 16.0336 9.62499 16.6663 9.62499 17.3267V30.6733C9.62499 31.3338 9.3591 31.9665 8.88727 32.4287C8.79947 32.5147 8.74999 32.6324 8.74999 32.7553V33.8571H9.99999V35C9.99999 35.5523 10.4477 36 11 36C11.5523 36 12 35.5523 12 35V33.8571H14V35C14 35.5523 14.4477 36 15 36C15.5523 36 16 35.5523 16 35V33.8571H17.25Z" fill="black"/>
</svg>

<svg
  xmlns="http://www.w3.org/2000/svg"
  width="24"
  height="24"
  viewBox="0 0 24 24"
  fill="none"
  stroke="currentColor"
  stroke-width="2"
  stroke-linecap="round"
  stroke-linejoin="round"
>
  <path
    fill-rule="evenodd"
    d="M28 6a2 2 0 0 0-2 2v4h1.533v2.195a3 3 0 0 1-1.015 2.25l-1.826 1.61A5 5 0 0 0 23 21.806V37a5 5 0 0 0 5 5h9a5 5 0 0 0 5-5V21.805a5 5 0 0 0-1.692-3.75l-1.826-1.61a3 3 0 0 1-1.015-2.25V12H39V8a2 2 0 0 0-2-2zm7.467 6h-5.934v2.195a5 5 0 0 1-1.692 3.75l-1.826 1.61A3 3 0 0 0 25 21.806V37a3 3 0 0 0 3 3h9a3 3 0 0 0 3-3V21.805a3 3 0 0 0-1.015-2.25l-1.826-1.61a5 5 0 0 1-1.692-3.75zM33 21.5a.5.5 0 0 0-1 0v2.728c-.28.264-.523.745-.698 1.366l-.802-.801V23.5a.5.5 0 0 0-.146-.354l-1.5-1.5a.5.5 0 0 0-.708.708l1.354 1.353V25a.5.5 0 0 0 .146.354l1.425 1.424q-.015.122-.026.248l-5.007.831c-.157.714.093 2.143 2.346 2.143 1.55 0 2.3-.946 2.617-1.862q.007.491.055.945L28.7 30.85a.5.5 0 0 0-.164.586l.317.792-1.045.435a.5.5 0 1 0 .384.924l1.5-.626a.5.5 0 0 0 .272-.647l-.357-.894 1.638-1.229q.064.263.143.493l-.372 1.441a.5.5 0 0 0-.016.125v.7l-1.39 1.738a.5.5 0 1 0 .78.624l1.5-1.875a.5.5 0 0 0 .11-.312v-.812l.115-.446A.66.66 0 0 0 32.5 32c.15 0 .293-.058.43-.166l.07.238v1.053a.5.5 0 0 0 .11.312l1.5 1.875a.5.5 0 1 0 .78-.624L34 32.95V32a.5.5 0 0 0-.02-.142l-.357-1.205q.06-.18.111-.379l1.655 1.158-.353.882a.5.5 0 0 0 .272.648l1.5.624a.5.5 0 1 0 .384-.922l-1.045-.436.317-.792a.5.5 0 0 0-.177-.596l-2.355-1.648q.036-.3.053-.619c.39.758 1.128 1.427 2.43 1.427 2.254 0 2.504-1.429 2.347-2.143l-4.804-.797a10 10 0 0 0-.03-.282l1.425-1.424A.5.5 0 0 0 35.5 25v-1.293l1.353-1.353a.5.5 0 0 0-.707-.708l-1.5 1.5a.5.5 0 0 0-.146.354v1.293l-.801.801c-.176-.621-.418-1.102-.699-1.366zM28.384 29c-.75 0-1.069-.189-1.204-.319l2.679-.445-.05.08c-.25.367-.652.684-1.425.684m9.236-.319c-.135.13-.454.319-1.204.319-.773 0-1.176-.317-1.424-.685l-.05-.079zM6 14.143h.75v1.102c0 .66.266 1.293.738 1.755a.46.46 0 0 1 .137.327v13.346c0 .123-.05.24-.137.327a2.46 2.46 0 0 0-.738 1.755v1.102H6V39h14v-5.143h-.75v-1.102c0-.66-.266-1.293-.738-1.755a.46.46 0 0 1-.137-.327V17.327c0-.123.05-.24.137-.327a2.46 2.46 0 0 0 .738-1.755v-1.102H20V9H6zm11.25 19.714v-1.102c0-.123-.05-.24-.137-.326a2.46 2.46 0 0 1-.738-1.756V17.327c0-.66.266-1.293.738-1.756a.46.46 0 0 0 .137-.326v-1.102H16v-1.714a1 1 0 1 0-2 0v1.714h-2v-1.714a1 1 0 1 0-2 0v1.714H8.75v1.102c0 .123.05.24.137.326.472.463.738 1.095.738 1.756v13.346c0 .66-.266 1.294-.738 1.756a.46.46 0 0 0-.137.326v1.102H10V35a1 1 0 1 0 2 0v-1.143h2V35a1 1 0 1 0 2 0v-1.143z"
    clip-rule="evenodd"
  />
</svg>
